build/flags/Jordan.svg

<svg xmlns="http://www.w3.org/2000/svg" fill="none" viewBox="0 0 28 28" focusable="false"><defs><filter id="Jordan_svg__a"><feColorMatrix values="0 0 0 0 1 0 0 0 0 1 0 0 0 0 1 0 0 0 1 0"/></filter></defs><mask id="Jordan_svg__b" width="28" height="20" x="0" y="4" maskUnits="userSpaceOnUse"><g filter="url(#Jordan_svg__a)"><rect width="28" height="20" y="4" fill="#FFF" rx="3"/><rect width="27.5" height="19.5" x=".25" y="4.25" stroke="#F5F5F5" stroke-width=".5" rx="2.75"/></g></mask><path fill="none" d="M0 0H28V28H0z"/><rect width="28" height="20" y="4" fill="#FFF" rx="3"/><rect width="27.5" height="19.5" x=".25" y="4.25" stroke="#D6D8DD" stroke-width=".5" rx="2.75"/><g mask="url(#Jordan_svg__b)"><path fill="#199E56" fill-rule="evenodd" d="M0 24L28 24L28 17.3333L0 17.3333L0 24Z"/><path d="M28 24L28 17.3333L0 17.3333L0 24L28 24Z"/><path fill="#262626" fill-rule="evenodd" d="M0 10.6667L28 10.6667L28 4L0 4L0 10.6667Z"/><path d="M28 10.6667L28 4L0 4L0 10.6667L28 10.6667Z"/><path fill="#E6223A" fill-rule="evenodd" d="M0 4L13.3333 14L0 24L0 4Z"/><path d="M13.3333 14L0 24L0 4L13.3333 14Z"/><path fill="#FFF" fill-rule="evenodd" d="M4.66669 15L3.79892 15.8019L3.88486 14.6235L2.71683 14.445L3.69176 13.7775L3.10302 12.753L4.2328 13.099L4.66669 12L5.10057 13.099L6.23035 12.753L5.64161 13.7775L6.61654 14.445L5.44852 14.6235L5.53445 15.8019L4.66669 15Z"/><path d="M3.79892 15.8019L3.88486 14.6235L2.71683 14.445L3.69176 13.7775L3.10302 12.753L4.2328 13.099L4.66669 12L5.10057 13.099L6.23035 12.753L5.64161 13.7775L6.61654 14.445L5.44852 14.6235L5.53445 15.8019L4.66669 15L3.79892 15.8019Z"/></g></svg>

<svg xmlns="http://www.w3.org/2000/svg" fill="none" viewBox="0 0 28 28" focusable="false"><path fill="none" d="M0 0h28v28H0z"/><rect width="28" height="20" y="4" fill="#FFF" rx="3"/><rect width="27.5" height="19.5" x=".25" y="4.25" stroke="#D6D8DD" stroke-width=".5" rx="3"/><mask id="Jordan_svg__a" width="28" height="20" x="0" y="4" mask-type="alpha" maskUnits="userSpaceOnUse"><rect width="28" height="20" y="4" fill="#FFF" rx="3"/><rect width="27.5" height="19.5" x=".25" y="4.25" stroke="#F5F5F5" stroke-width=".5" rx="3"/></mask><g mask="url(#Jordan_svg__a)"><path fill="#199E56" fill-rule="evenodd" d="M0 24h28v-6.67H0z"/><path d="M28 24v-6.67H0V24z"/></g><g mask="url(#Jordan_svg__a)"><path fill="#262626" fill-rule="evenodd" d="M0 10.66h28V4H0z"/><path d="M28 10.66V4H0v6.66z"/></g><g mask="url(#Jordan_svg__a)"><path fill="#E6223A" fill-rule="evenodd" d="m0 4 13.33 10L0 24z"/><path d="M13.33 14 0 24V4z"/></g><g mask="url(#Jordan_svg__a)"><path fill="#FFF" fill-rule="evenodd" d="m4.66 15-.87.8.09-1.18-1.17-.18.98-.67-.59-1.02 1.13.34.43-1.09.44 1.09 1.13-.34-.59 1.02.97.67-1.17.18.09 1.18z"/><path d="m3.79 15.8.09-1.18-1.17-.18.98-.67-.59-1.02 1.13.34.43-1.09.44 1.09 1.13-.34-.59 1.02.97.67-1.17.18.09 1.18-.87-.8z"/></g></svg>
